X:1
Q:1/4=102
L:1/8
M:1/4
K:C clef=G2
V:1
%%MIDI program 52
F31/16|^A31/16|^Az/2^A31/64|^Az/2F31/64|
^Az/2c31/64|d2-|dz/2c31/64|^A31/16|
F31/16|G31/16|Gz/2G31/64|A31/32^A31/64A31/64|
Gz/2A31/64|^A2-|^A2-|^A31/32z|
F31/16|d31/16|dz/2d31/64|dz/2c31/64|
dz/2^d31/64|f2-|fz/2^d31/64|d31/32z/2f31/64|
ez/2d31/64|c31/16|Az/2^A31/64|cz/2c31/64|
^Az/2G31/64|F2-|F2-|F31/32z|
F31/16|c2-|cz/2c31/64|cz/2B31/64|
cz/2d31/64|^A2-|^A31/16|F31/16|
F31/16|^d2-|^dz/2^d31/64|^dz/2d31/64|
^dz/2f31/64|d2-|d2-|d31/32z|
^A31/16|g2-|g31/32f31/32|^d31/32c31/32|
d31/32^d31/32|f2-|f31/32^d31/32|d31/16|
d31/16|c31/32B31/32|c31/32d31/32|^d31/16|
Gz/2A31/64|^A2-|^A2-|^A31/32z|
F31/16
L:1/8
M:1/4
K:C clef=G2
V:2
%%MIDI program 0
F15/8|[^AD]15/8|[D-^A][D-]/2[^A-D]3/8|[^AD]z/2[FD]15/32|
[^AD]z/2[cF]15/32|[d-F-]2|[dF]z/2[c^D]15/32|[^AD]15/8|
[FD]15/8|[G^D]15/8|[^D-G][^D-]/2[G-^D]3/8|[^D-A]31/32[^D-^A]15/32[^D-A]15/32|
[G^D]z/2[A^D]15/32|[^A-D-]2|[^A-D-]2|[^AD]3/4zz/4|
F15/8|[d^A]15/8|[d^A]z/2[d^A]15/32|[d^A]z/2[cA]15/32|
[d^A]z/2[^dc]15/32|[f-d-]2|[fd]z/2[^dc]15/32|[d^A]15/16z/2f15/32|
[eF]z/2[dF]15/32|[cF]15/8|[AF]z/2[^AF]15/32|[cE]z/2[cE]15/32|
[^AE]z/2[GE]15/32|F2-|F2-|F3/4zz/4|
F15/8|[c-^D-]2|[c^D]z/2[c^D]15/32|[c^D]z/2[BD]15/32|
[c^D]z/2[dF]15/32|[^A-D-]2|[^AD]31/16|[FD]15/8|
F15/8|[^d-c-]2|[^dc]z/2[^dc]15/32|[^dc]z/2[dB]15/32|
[^dc]z/2[fd]15/32|[d-^A-]2|[d-^A-]2|[d^A]3/4zz/4|
^A15/8|[g^A]15/8|[B-g]7/8[B-]/8[f-B]7/8|[^dc]15/16c15/16|
[d^A]15/16[^d^A]15/16|[f^A]15/8|[A-f]7/8[A-]/8[^d-A]7/8|[d^A]15/8|
[d^G]15/8|[cG]15/16[BG]15/16|[cF]15/16[dF]15/16|[^d^D]15/8|
[G^D]z/2[A^D]15/32|[^A-D-]2|[^A-D-]2|[^AD]3/4zz/4|
F15/8
L:1/8
M:1/4
K:C clef=F4
V:3
%%MIDI program 0
F,15/8|[F,^A,,]15/8|[F,^A,,]15/8|[F,^A,,]z/2[F,^A,,]15/32|
[F,^A,,]z/2[F,^A,,]15/32|[F,^A,,]15/8|[^A,,-F,][^A,,-]/2[F,-^A,,]3/8|[F,^A,,]15/8|
[^A,F,]15/8|[^A,-^D,][^A,-]/2[^A,-D,]15/32|[C,-^A,][C,-]/2[C-C,]3/8|[DF,]15/8|
[CF,]z/2[CF,]15/32|[^A,-^A,,-]2|[^A,-^A,,-]2|[^A,^A,,]3/4zz/4|
z2|[^A,-]2|[A,^A,]7/4(5:4[A,]/4|[^A,G,]31/16|
[^A,-F,][^A,-]/2[^D,-^A,]/4[^D,]31/128|[^A,D,]31/16|[^A,C,]15/8|[^A,^A,,]31/16|
[^G,B,,]15/8|[C,A,]15/8|[A,C,]7/4|[C,G,]15/8|
[C,-C][C,-]/2[^A,-C,]/4[^A,]7/32|[A,-F,-]2|[A,-F,-]2|[A,F,]3/4zz/4|
z2|[F,-A,-]2|[F,-A,-]2|[F,-A,-]3/2[F,A,]3/16[F,-]3/8|
[C-F,]/2[C-]7/16[C-G,]31/64[A,-C]3/8|^A,2-|^A,7/4z7/32|^A,15/8|
z2|[A,-F,-]2|[A,F,]7/4z7/32|[^A,G,]15/8|
[CA,]15/8|[^A,-]2|[^A,A,]31/16|[G,-^A,]15/16[G,]|
F,31/16|[G,^D,]31/16|[G,D,]31/16|[G,-C,]31/32[^D,-G,]3/4[^D,]31/128|
[G,-D,]31/32[G,-C,]15/16|[F,D,]15/8|[F,C,]15/8|[F,^A,,]15/8|
[B,F,]15/8|[C^D,]31/16|[D,-C]31/32[D,-B,]15/16|[CC,]15/8|
[F,-C][F,-]/2[C-F,]3/8|[^A,-^A,,-]2|[^A,-^A,,-]2|[^A,^A,,]3/4zz/4|
zz31/32
Q:1/4=102
L:1/8
M:1/4
K:C clef=G2
V:1
%%MIDI program 52
c31/16|c3/2c31/64|cz/2B31/64|cz/2d31/64|
^A31/16|^A2|F31/16|F31/16|
^d31/16|^d3/2^d31/64|^dz/2d31/64|^dz/2f31/64|
d31/16|d2-|dz|^A31/16|
g31/16|gf31/32|^d31/32c31/32|d31/32^d31/32|
f31/16|f^d31/32|d31/16|d31/16|
c31/32B31/32|c31/32d31/32|^d31/16|Gz/2A31/64|
^A31/16|^A2-|^A2|
L:1/8
M:1/4
K:C clef=G2
V:2
%%MIDI program 0
[c^D]31/16|[c^D]z/2[c^D]15/32|[c^D]z/2[BD]15/32|[c^D]z/2[dF]15/32|
[^AD]31/16|[^AD]2|[FD]15/8|F15/8|
[^dc]31/16|[^dc]z/2[^dc]15/32|[^dc]z/2[dB]15/32|[^dc]z/2[fd]15/32|
[d^A]31/16|[d-^A-]2|[d^A]3/4zz/4|^A15/8|
[g^A]15/8|[B-g]7/8[B-]/8[f-B]7/8|[^dc]15/16c15/16|[d^A]15/16[^d^A]15/16|
[f^A]15/8|[A-f]7/8[A-]/8[^d-A]7/8|[d^A]15/8|[d^G]15/8|
[cG]15/16[BG]15/16|[cF]15/16[dF]15/16|[^d^D]15/8|[G^D]z/2[A^D]15/32|
[^AD]31/16|[^A-D-]2|[^A-D-]3/2(5:4[^AD]/4z/2|
L:1/8
M:1/4
K:C clef=F4
V:3
%%MIDI program 0
[F,A,]31/16|[F,-A,-]2|[F,-A,-]3/2(5:4[F,A,]/4[F,-]/2|[C-F,]3/4[C-]/4[C-G,]31/64[A,-C]3/8|
^A,31/16|^A,7/4(5:4z/4|^A,15/8|z2|
[A,F,]31/16|[A,F,]7/4(5:4z/4|[^A,G,]15/8|[CA,]15/8|
[^A,]31/16|[^A,A,]31/16|[G,-^A,]15/16[G,]|F,31/16|
[G,^D,]31/16|[G,D,]31/16|[G,-C,]31/32[^D,-G,]3/4[^D,]31/128|[G,-D,]31/32[G,-C,]15/16|
[F,D,]15/8|[F,C,]15/8|[F,^A,,]15/8|[B,F,]15/8|
[C^D,]31/16|[D,-C]31/32[D,-B,]15/16|[CC,]15/8|[F,-C][F,-]/2[C-F,]3/8|
[^A,^A,,]31/16|[^A,-^A,,-]2|[^A,-^A,,-]3/2(5:4[^A,^A,,]/4z/2|


